X:1
T:Ahi, et e dunque
T:Ahi, et e dunque
T:Enrico Radesca di Foggia
T:Source : Canzonette, madrigale & arie---Libro I---Milano---Heredes S.Tini & F.Lomazzi---1606. Editor : André Vierendeels (19/03/14).
C:Enrico Radesca di Foggia
%%score [ 1 2 ] 3
L:1/8
Q:1/4=96
M:4/4
K:C
V:1 treble nm="Soprano" snm="S"
V:2 bass nm="Bass" snm="B"
V:3 bass nm="MusicXML Part"
V:1
 d8- | d8 | G2 G2 G2 A2 | A4 c4- | c4 B2 A2 | B8 | B2 ee ^c2 cc | d4 B4 | z2 ee ^c2 cc | d4 B2 BB | %10
w: Ahi,|_|et e dun- qu'il|ver, du-|* ra mia|sor-|te, ch'io ti veg- gio par-|ti- re,|ch'io ti veg- gio par-|ti- re, O di|
 ^G2 GG A2 AA | ^F2 FF G4- | G2 G2 G2 G2 | A8 |1[M:2/4] G4 ::2[M:4/4] G2 G2 G4- || G2 G2 F2 F2 | %17
w: que- sto mio cor, O di|que- sto mio cor|_ so- lo de-|si-|o,|o, e qua|_ fra vi- ta'e|
 E4 E4 | B2 B2 e4- | e4 ^c2 c2 | d8 | B4 c4- | c4 d4- | d4 c4- | c4 B4 | c4 A2 A2 | A2 AA A4- | %27
w: mor- te,|col- mo d'i-|* ra, d'af-|fan-|ni'e di|_ mar-|* ti-||re, a me|stes- so no- io-|
 A2 A2 d4- | d2 c2 B4 | A8 | d8 | G2 A2 A2 A2 | G4 d4 | G2 A2 A2 A2 | G4 E4 | F2 A2 ^G4 | A4 z4 | %37
w: * so ri-|* * man-|g'io?|Pur|te- co ne ver-|ro, pur|te- co ne ver-|ro che|na- ve si-|a,|
 B2 c2 d4- | d2 FG A4 | B8 || B2 G2 B2 cA | B8 | d2 B2 c2 AA | B4 B4 | A2 A2 G4 | A2 d2 cBcA | %46
w: l'af- flitt' a-|* ni- ma mi-|a.|Te- co se- gui- r'il|cor,|te- co se- gui- r'il|cor che|fugg' in- an-|ti, col ven- to di so-|
 B2 z c AGAB | G2 z A ^FEFG | E4 A4- | A4 G2 A2 | A8 | G4 z2 D2 | E2 ^F2 G2 A2 | B2 c2 d2 B2 | A8 | %55
w: spir, col ven- to di so-|spir,- col ven- to di so-|spir on-|* da di|pian-|to, col|ven- to di so-|spir, on- da di|pian-|
 G8 :| %56
w: to.|
V:2
 G,8- | G,8 | E,2 E,2 E,2 C,2 | D,4 A,,4 | E,6 F,2 | E,8 | E,4 z2 A,A, | ^F,2 F,F, G,4 | %8
w: Ahi,|_|et e dun- qu'il|ver, du-|ra mia|sor-|te, ch'io ti|veg- gio par- ti-|
 E,4 z2 A,A, | ^F,2 F,F, G,4 | E,2 E,E, ^C,2 C,C, | D,4 B,,4 | ^C,6 E,2 | D,8 |1[M:2/4] G,,4 ::2 %15
w: re, ch'io ti|veg- gio par- ti-|re, O di que- sto mio|cor so-|lo de-|si-|o,|
[M:4/4] G,,2 G,,2 C,4- || C,2 C,2 D,2 D,2 | E,4 E,4 | E,6 E,2 | A,8 | ^F,2 F,2 G,4- | G,4 E,4 | %22
w: o, e qua|_ fra vi- ta'e|mor- te,|col mio|d'i-|ra, d'af- fan-|ni'e di|
 F,8 | G,8 | G,8 | C,4 F,2 F,2 | F,2 F,F, F,2 E,2 | D,6 D,2 | E,8 | A,,8 | G,,8 | %31
w: mar-||ti-|re, a me|stes- so no- io- so|ri- man-||g'io?|Pur|
 B,,2 C,2 D,2 D,2 | G,,4 G,,4 | B,,2 C,2 D,2 D,2 | G,,4 C,4 | D,2 F,2 E,4 | A,4 E,2 F,2 | %37
w: te- co me ver-|ro, pur|te- co me ver-|ro che|na- ve si-|a, l'af- flitt'|
 G,6 B,,C, | D,8 | G,,8 || G,2 E,2 G,2 C,D, | G,,8 | G,2 G,2 C,2 D,D, | G,,4 G,4 | F,2 F,2 E,4 | %45
w: a- ni- ma|mi-|a.|Te- co se- gui- r'il|cor,|te- co se- gui- r'il|cor che|fugg' in- an-|
 D,4 z2 A,2 | G,^F,G,E, F,2 z D, | E,D,E,C, D,3 B,, | C,4 A,,4 | B,,6 C,2 | D,8 | G,,4 z2 B,,2 | %52
w: ti, col|ven- to di so- spir, col|ven- to di so- spir on-|da di|pian- *||to, col|
 C,2 D,2 E,2 ^F,2 | G,2 A,2 ^F,2 G,2 | D,8 | G,,8 :| %56
w: ven- to di so-|spir on- da di|pian-|to.|
V:3
 G,8- | G,8 | E,6 C,2 | D,4 A,,4 | E,6 F,2 | E,8 | E,4 A,4 | D,4 G,4 | E,4 A,4 | D,4 G,4 | %10
 E,4 A,4 | D,4 B,,4 | ^C,6 E,2 | D,8 |1[M:2/4] G,,4 ::2[M:4/4] G,,4 C,4 || C,4 D,4 | E,8 | E,8 | %19
 A,8 | D,4 G,4- | G,4 E,4 | F,8 | G,8 | G,8 | C,4 F,4 | F,6 E,2 | D,8 | E,8 | A,,8 | G,,8 | %31
 B,,2 C,2 D,4 | G,,4 G,4 | B,,2 C,2 D,4 | G,,4 C,4 | D,2 F,2 E,4 | A,4 E,2 F,2 | G,6 B,,C, | D,8 | %39
 G,,8 || G,2 E,2 G,2 C,D, | G,,8 | G,4 C,2 D,2 | G,8 | F,4 E,4 | D,4 A,4 | G,4 D,4 | E,4 D,3 B,, | %48
 C,4 A,,4 | B,,6 C,2 | D,8 | G,,8 | C,2 D,2 E,2 D,2 | G,2 A,2 D,2 G,2 | D,8 | G,,8 :| %56

